X:1
T:Macht auf das Tor der Gerechtigkeit
T:Bernhard Klein (1793-1832)
T:Tobias Kiel (1584-1627)
T:Macht auf das Tor der Gerechtigkeit
T:Ostergesang
T:CPDL   —   Creative Commons Attribution Non Commercial 3.0
T:CPDL   —   Creative Commons Attribution Non Commercial 3.0
C:Bernhard Klein
Z:Tobias Kiel
Z:CPDL   —   Creative Commons Attribution Non Commercial 3.0
%%score [ ( 1 2 ) ( 3 4 ) ]
L:1/8
Q:1/4=90
M:3/4
K:C
V:1 treble nm="Sopran\nAlt"
V:2 treble 
V:3 bass nm="Tenor\nBass"
V:4 bass 
V:1
"^Feierlich"!f! C2 G2 c2 | B4 (ee) | d4!>(! c2 | B4!>)!!f! d2 | e4 f2 | (d2 B2) c2 | (c2 d2) B2 | %7
w: 1. Macht auf das|Tor der Ge-|rech- tig-|keit, der|Herr kommt|wie- * der|aus * dem|
w: 2.  Gott sei ge-|preist und _|hoch ge-|ehrt, der|Höl- le|Pfor- * ten|sind * zer-|
!>(! c6!>)! |!f! e2 d2 e2 | (cBcedc | B2 c2) d2 | (c2!>(! B2) A2 | G4!>)!!f! c2 | A4 B2 | %14
w: Streit!|Lasst ihn mit|Freu- * * * * \-|* * den|sin- * gen|an, lasst|sin- gen|
w: stört,|es steht der|Him- * * * * \-|* * mel|of- * fen|da, die|En- gel|
!>(! ^G4!>)!!f! e2 | (f2 e2) d2 | e4!mf! e2 | A2 de f2 | B2 G2!<(! c2!<)! | cd e2 d2 |!>(! c6!>)! | %21
w: mit, wer|sin- * gen|kann; wir|ha- ben * nun|wie- der den|Sie- * * ges-|mann!|
w: Got- tes|sind _ uns|nah', freu'n|sich mit * uns|Brü- der, Hal-|le- * * lu-|ja!|
!f! G2 !>!c2 G2 | c4 d2 |!>(! e2!>)! c2 z2 |!f! e2 !>!f2 e2 | c4 d2 |!>(! e2!>)! e2 z2 | %27
w: 1\-2. Macht's präch- tig,|er ist|mäch- tig!|macht's ehr- lich,|er ist|herr- lich!|
w: ||||||
!f! (e2 g2) c2 |!>(! d4 e2!>)! |!f!!<(! (e2!<)! g2) c2 |!>(! d4 e2!>)! |!ff! c2 e2 c2 | f4 d2 | %33
w: Ju- * bi-|lie- ret,|lasst _ Gott|wal- ten,|Christ hat den|Sieg er-|
w: ||||||
!>(! B6!>)! | c2 z4 |] %35
w: hal-|ten.|
w: ||
V:2
 C2 C2 E2 | G4 (GG) | (G2 F2) E2 | D4 G2 | (G2 A2) A2 | G4 G2 | F4 D2 | E6 | G2 G2 G2 | A2 G2 A2 | %10
w: |||||||||Freu- den, mit|
w: |||||||||Him- mel, der|
 G4 G2 | A2 G2 ^F2 | G4 G2 | (=F2 E2) D2 | E4 A2 | A4 A2 | ^G4 =G2 | F2 A2 A2 | G2 G2 G2 | %19
w: Freu- den|||||||||
w: Him- mel|||||||||
 (^F2 G2) =F2 | E6 | E2 G2 G2 | E4 G2 | G2 E2 x2 | A2 A2 A2 | A4 A2 | ^G2 G2 x2 | =G4 E2 | %28
w: |||||||||
w: |||||||||
 (G2 F2) E2 | G4 ^F2 | =F4 E2 | G2 G2 G2 | F4 A2 | (G4 F2) | E2 x4 |] %35
w: |||||||
w: |||||||
V:3
 C2 C2 C2 | D4 (CC) | B,4 G,2 | G,4 B,2 | C4 A,2 | (B,2 D2) C2 | A,4 G,2 | G,6 | C2 B,2 C2 | %9
 C2 C2 A,2 | (D2 E2) D2 | (E2 D2) C2 | B,4 C2 | C4 A,2 | B,4 A,2 | (D2 C2) B,A, | B,4 C2 | %17
 C2 A,2 D2 | D2 B,2 C2 | C4 B,2 | G,6 | C2 E2 D2 | C4 B,2 | C2 G,2 z2 | C2 D2 C2 | A,4 B,2 | %26
 B,2 B,2 z2 | (E2 D2) C2 | B,4 C2 | (E2 D2) C2 | (B,2 G,2) G,2 | C2 C2 G,2 | A,4 A,2 | D6 | %34
 C2 z4 |] %35
V:4
 C,2 E,2 C,2 | G,4 (E,E,) | G,4 C,2 | G,4 G,2 | (C2 A,2) F,2 | G,4 E,2 | (F,2 D,2) G,2 | C,6 | %8
 C2 G,2 E,2 | F,2 E,2 ^F,2 | (G,2 E,2) B,,2 | (C,2 D,2) D,2 | G,4 E,2 | =F,4 F,2 | (E,2 D,2) C,2 | %15
 (D,2 E,2) F,2 | E,4 C,2 | F,2 F,E, D,2 | G,2 F,2 E,2 | (A,2 G,2) G,,2 | C,6 | C2 C2 B,2 | %22
 A,4 G,2 | C,2 C,2 x2 | A,2 D,2 E,2 | F,4 F,2 | E,2 E,2 x2 | (C2 B,2) A,2 | G,4 C,2 | %29
 (C2 B,2) A,2 | G,4 C,2 | E,2 C,2 E,2 | D,4 F,2 | G,6 | C,2 x4 |] %35

